X:18027
T:Russian March
R:March
C:Trad. William Clarke of Feltwell MS 1858
O:England, Norfolk
Z:Paul Hardy's Session Tunebook 2015 (see www.paulhardy.net). Creative Commons cc by-nc-sa licenced.
M:4/4
L:1/8
Q:1/4=160
K:C
G>G|"C" c2 e>c G2 G>G|"G" d2 f>d B2 G2|"C" g>fe>g "F"f>ed>f|"C" e>dc>e "G"d2 G>G|
"C" c2 e>c G2 G>G|"G" d2 f>d B2G2|"C" c>d e>f "G"g>efd|"C" c2 c>c c2:|
|:e2|"G" d>BG>G G2f2|"C" e>cG>G G2 g2|"F" f>ed>f "C"e>dc>e|"G" d>cB>A G>GA>B|
"C" c2 e>f g2 _B2|"F" A2 f>g a2 f2|"C" e>fg>f "G"e>fd>e|"C" c2 c>c c2:|

